styles/1/Numix/32/places/brown-folder-system.svg

<?xml version="1.0" encoding="UTF-8" standalone="no"?>
<!-- Created with Inkscape (http://www.inkscape.org/) -->

<svg
   xmlns:dc="http://purl.org/dc/elements/1.1/"
   xmlns:cc="http://creativecommons.org/ns#"
   xmlns:rdf="http://www.w3.org/1999/02/22-rdf-syntax-ns#"
   xmlns:svg="http://www.w3.org/2000/svg"
   xmlns="http://www.w3.org/2000/svg"
   xmlns:sodipodi="http://sodipodi.sourceforge.net/DTD/sodipodi-0.dtd"
   xmlns:inkscape="http://www.inkscape.org/namespaces/inkscape"
   width="32"
   height="32"
   id="svg2"
   version="1.1"
   inkscape:version="0.91 r"
   sodipodi:docname="brown-folder-system.svg"
   inkscape:export-filename="/media/Data/Main/Visuals/Icons/Numix/Desktop/repos/numix-wiki/Gjorgi/Numix-folders/48/New/folder-144.png"
   inkscape:export-xdpi="270"
   inkscape:export-ydpi="270">
  <defs
     id="defs4" />
  <sodipodi:namedview
     id="base"
     pagecolor="#ffffff"
     bordercolor="#666666"
     borderopacity="1.0"
     inkscape:pageopacity="0.0"
     inkscape:pageshadow="2"
     inkscape:zoom="18.953468"
     inkscape:cx="10.366989"
     inkscape:cy="16.166067"
     inkscape:document-units="px"
     inkscape:current-layer="layer1"
     showgrid="true"
     inkscape:window-width="1280"
     inkscape:window-height="998"
     inkscape:window-x="0"
     inkscape:window-y="0"
     inkscape:window-maximized="1"
     showguides="true"
     inkscape:guide-bbox="true">
    <inkscape:grid
       type="xygrid"
       id="grid2985"
       empspacing="5"
       visible="true"
       enabled="true"
       snapvisiblegridlinesonly="true" />
  </sodipodi:namedview>
  <metadata
     id="metadata7">
    <rdf:RDF>
      <cc:Work
         rdf:about="">
        <dc:format>image/svg+xml</dc:format>
        <dc:type
           rdf:resource="http://purl.org/dc/dcmitype/StillImage" />
        <dc:title />
      </cc:Work>
    </rdf:RDF>
  </metadata>
  <g
     inkscape:label="Layer 1"
     inkscape:groupmode="layer"
     id="layer1"
     transform="translate(0,-1020.3622)">
    <path
       style="font-size:medium;font-style:normal;font-variant:normal;font-weight:normal;font-stretch:normal;text-indent:0;text-align:start;text-decoration:none;line-height:normal;letter-spacing:normal;word-spacing:normal;text-transform:none;direction:ltr;block-progression:tb;writing-mode:lr-tb;text-anchor:start;baseline-shift:baseline;color:#000000;fill:#8d6e63;fill-opacity:1;fill-rule:nonzero;stroke:none;stroke-width:2.28612947;marker:none;visibility:visible;display:inline;overflow:visible;enable-background:accumulate;font-family:Sans;-inkscape-font-specification:Sans"
       d="M 2.03125 4 C 1.4665378 4.056 0.99079304 4.58885 1 5.15625 L 1 26.84375 C 0.993 27.45105 1.5489584 28.007 2.15625 28 L 29.84375 28 C 30.451042 28.01 31.006984 27.45105 31 26.84375 L 31 7.15625 C 31.007 6.54895 30.451042 5.993 29.84375 6 L 19 6 L 19 5.15625 C 19.0069 4.55935 18.471863 4.0095 17.875 4 L 2.15625 4 L 2.03125 4 z M 15.0625 11 L 16.96875 11 C 17.301543 11 17.5625 11.26095 17.5625 11.59375 L 17.5625 12.375 C 17.776841 12.447 17.987533 12.525 18.1875 12.625 L 18.71875 12.09375 C 18.954038 11.85845 19.327192 11.85845 19.5625 12.09375 L 20.9375 13.4375 C 21.172806 13.6728 21.172806 14.04585 20.9375 14.28125 L 20.375 14.84375 C 20.472373 15.04035 20.55439 15.2271 20.625 15.4375 L 21.40625 15.4375 C 21.73904 15.4375 22.000001 15.69845 22 16.03125 L 22 17.96875 C 22 18.30155 21.739024 18.5625 21.40625 18.5625 L 20.625 18.5625 C 20.554386 18.7729 20.47237 18.95965 20.375 19.15625 L 20.9375 19.71875 C 21.172801 19.95395 21.172806 20.3272 20.9375 20.5625 L 19.5625 21.90625 C 19.327212 22.14145 18.954056 22.14145 18.71875 21.90625 L 18.1875 21.375 C 17.987554 21.4746 17.776865 21.553 17.5625 21.625 L 17.5625 22.40625 C 17.5625 22.73915 17.301524 23 16.96875 23 L 15.0625 23 C 14.729732 23 14.4375 22.73915 14.4375 22.40625 L 14.4375 21.625 C 14.227102 21.5543 14.040305 21.473 13.84375 21.375 L 13.28125 21.90625 C 13.045962 22.14145 12.672806 22.14145 12.4375 21.90625 L 11.09375 20.5625 C 10.858443 20.3272 10.858443 19.95415 11.09375 19.71875 L 11.625 19.1875 C 11.525297 18.9875 11.44693 18.7768 11.375 18.5625 L 10.625 18.5625 C 10.292225 18.5625 10 18.30155 10 17.96875 L 10 16.03125 C 10 15.69845 10.292225 15.4375 10.625 15.4375 L 11.375 15.4375 C 11.446941 15.2232 11.52529 15.0124 11.625 14.8125 L 11.09375 14.28125 C 10.858443 14.04605 10.858443 13.6728 11.09375 13.4375 L 12.4375 12.09375 C 12.672788 11.85845 13.045944 11.85845 13.28125 12.09375 L 13.84375 12.625 C 14.040305 12.5278 14.227102 12.446 14.4375 12.375 L 14.4375 11.59375 C 14.4375 11.26095 14.729727 11 15.0625 11 z M 16 15.4375 C 15.141333 15.4375 14.4375 16.1413 14.4375 17 C 14.4375 17.8586 15.141333 18.5625 16 18.5625 C 16.858667 18.5625 17.5625 17.8586 17.5625 17 C 17.5625 16.1413 16.858667 15.4375 16 15.4375 z "
       transform="translate(0,1020.3622)"
       id="path3912" />
  </g>
</svg>

<!-- Created with Inkscape (http://www.inkscape.org/) -->
<svg xmlns="http://www.w3.org/2000/svg" viewBox="0 0 32 32">
 <g transform="translate(0,-1020.3622)">
  <path d="m 2.031 4 c -0.565 0.056 -1.04 0.589 -1.031 1.156 l 0 21.688 c -0.007 0.607 0.549 1.163 1.156 1.156 l 27.688 0 c 0.607 0.01 1.163 -0.549 1.156 -1.156 l 0 -19.688 c 0.007 -0.607 -0.549 -1.163 -1.156 -1.156 l -10.844 0 l 0 -0.844 c 0.007 -0.597 -0.528 -1.147 -1.125 -1.156 l -15.719 0 l -0.125 0 z m 13.03 7 l 1.906 0 c 0.333 0 0.594 0.261 0.594 0.594 l 0 0.781 c 0.214 0.072 0.425 0.15 0.625 0.25 l 0.531 -0.531 c 0.235 -0.235 0.608 -0.235 0.844 0 l 1.375 1.344 c 0.235 0.235 0.235 0.608 0 0.844 l -0.563 0.563 c 0.097 0.197 0.179 0.383 0.25 0.594 l 0.781 0 c 0.333 0 0.594 0.261 0.594 0.594 l 0 1.938 c 0 0.333 -0.261 0.594 -0.594 0.594 l -0.781 0 c -0.071 0.21 -0.153 0.397 -0.25 0.594 l 0.563 0.563 c 0.235 0.235 0.235 0.608 0 0.844 l -1.375 1.344 c -0.235 0.235 -0.608 0.235 -0.844 0 l -0.531 -0.531 c -0.2 0.1 -0.411 0.178 -0.625 0.25 l 0 0.781 c 0 0.333 -0.261 0.594 -0.594 0.594 l -1.906 0 c -0.333 0 -0.625 -0.261 -0.625 -0.594 l 0 -0.781 c -0.21 -0.071 -0.397 -0.152 -0.594 -0.25 l -0.563 0.531 c -0.235 0.235 -0.608 0.235 -0.844 0 l -1.344 -1.344 c -0.235 -0.235 -0.235 -0.608 0 -0.844 l 0.531 -0.531 c -0.1 -0.2 -0.178 -0.411 -0.25 -0.625 l -0.75 0 c -0.333 0 -0.625 -0.261 -0.625 -0.594 l 0 -1.938 c 0 -0.333 0.292 -0.594 0.625 -0.594 l 0.75 0 c 0.072 -0.214 0.15 -0.425 0.25 -0.625 l -0.531 -0.531 c -0.235 -0.235 -0.235 -0.608 0 -0.844 l 1.344 -1.344 c 0.235 -0.235 0.608 -0.235 0.844 0 l 0.563 0.531 c 0.197 -0.097 0.383 -0.179 0.594 -0.25 l 0 -0.781 c 0 -0.333 0.292 -0.594 0.625 -0.594 z m 0.938 4.438 c -0.859 0 -1.563 0.704 -1.563 1.563 c 0 0.859 0.704 1.563 1.563 1.563 c 0.859 0 1.563 -0.704 1.563 -1.563 c 0 -0.859 -0.704 -1.563 -1.563 -1.563 z" transform="translate(0,1020.3622)" style="visibility:visible;fill:#8d6e63;fill-opacity:1;stroke:none;display:inline;color:#000;fill-rule:nonzero"/>
 </g>
</svg>
